packages/foundations/assets/icons/functional/images/business & payment/tickets_32.svg

<svg width="32" height="32" viewBox="0 0 32 32" fill="none" xmlns="http://www.w3.org/2000/svg">
<g clip-path="url(#clip0_184_161)">
<path fill-rule="evenodd" clip-rule="evenodd" d="M18 6.495C19.656 6.495 21 7.869 21 9.523V26.473C21 28.126 19.656 29.5 18 29.5H6C4.344 29.5 3 28.127 3 26.472V9.523C3 7.87 4.344 6.495 6 6.495H18ZM18 8.493H6C5.437 8.493 5 8.961 5 9.523V26.473C5 27.034 5.438 27.471 6 27.471H18C18.563 27.471 19 27.034 19 26.472V9.523C19 8.961 18.562 8.493 18 8.493ZM26 2.5C27.656 2.5 29 3.873 29 5.528V22.477C29 24.131 27.656 25.505 26 25.505H24.031C23.469 25.505 23.031 25.036 23.031 24.475C23.031 23.944 23.469 23.475 24.031 23.475H26C26.563 23.475 27 23.039 27 22.477V5.527C27.0015 5.39536 26.9766 5.26476 26.9269 5.14287C26.8771 5.02099 26.8035 4.9103 26.7103 4.8173C26.6171 4.72431 26.5063 4.65089 26.3843 4.60138C26.2623 4.55187 26.1316 4.52726 26 4.529H14C13.437 4.529 13 4.061 13 3.53C13 2.968 13.438 2.5 14 2.5H26ZM8 22.477C8.563 22.477 9 22.945 9 23.507C9 24.037 8.562 24.506 8 24.506C7.437 24.506 7 24.038 7 23.506C7 22.946 7.438 22.477 8 22.477ZM12 22.477C12.563 22.477 13 22.945 13 23.507C13 24.037 12.562 24.506 12 24.506C11.437 24.506 11 24.038 11 23.506C11 22.946 11.438 22.477 12 22.477ZM16 22.477C16.563 22.477 17 22.945 17 23.507C17 24.037 16.562 24.506 16 24.506C15.437 24.506 15 24.038 15 23.506C15 22.946 15.438 22.477 16 22.477ZM24 17.483C24.563 17.483 25 17.951 25 18.482C25.0015 18.6136 24.9766 18.7442 24.9269 18.8661C24.8771 18.988 24.8035 19.0987 24.7103 19.1917C24.6171 19.2847 24.5063 19.3581 24.3843 19.4076C24.2623 19.4571 24.1316 19.4817 24 19.48C23.437 19.48 23 19.043 23 18.482C23 17.951 23.438 17.483 24 17.483Z" fill="#1A1C1F"/>
</g>
<defs>
<clipPath id="clip0_184_161">
<rect width="32" height="32" fill="white"/>
</clipPath>
</defs>
</svg>

<svg xmlns="http://www.w3.org/2000/svg" width="32" height="32" fill="none"><g clip-path="url(#a)"><path fill="#1A1C1F" fill-rule="evenodd" d="M18 6.495c1.656 0 3 1.374 3 3.028v16.95c0 1.653-1.344 3.027-3 3.027H6c-1.656 0-3-1.373-3-3.028V9.523C3 7.87 4.344 6.495 6 6.495zm0 1.998H6c-.563 0-1 .468-1 1.03v16.95c0 .561.438.998 1 .998h12c.563 0 1-.437 1-.999V9.523c0-.562-.438-1.03-1-1.03M26 2.5c1.656 0 3 1.373 3 3.028v16.949c0 1.654-1.344 3.028-3 3.028h-1.969c-.562 0-1-.469-1-1.03 0-.531.438-1 1-1H26c.563 0 1-.436 1-.998V5.527a.99.99 0 0 0-1-.998H14c-.563 0-1-.468-1-.999 0-.562.438-1.03 1-1.03zM8 22.477c.563 0 1 .468 1 1.03 0 .53-.438.999-1 .999s-1-.468-1-1c0-.56.438-1.029 1-1.029m4 0c.563 0 1 .468 1 1.03 0 .53-.438.999-1 .999s-1-.468-1-1c0-.56.438-1.029 1-1.029m4 0c.563 0 1 .468 1 1.03 0 .53-.438.999-1 .999s-1-.468-1-1c0-.56.438-1.029 1-1.029m8-4.994a1.006 1.006 0 0 1 .71 1.709.99.99 0 0 1-.71.288c-.563 0-1-.437-1-.998 0-.531.438-.999 1-.999" clip-rule="evenodd"/></g><defs><clipPath id="a"><path fill="#fff" d="M0 0h32v32H0z"/></clipPath></defs></svg>
